X: 6411
T: Castle, The
R: jig
M: 6/8
K: Adorian
|:cBA afa|bag edB|GBd gfg|GBd cBA|
[1 cBA afa|bag edB|GBd gdc|BAG A2B:|
[2 cBc dcd|ede gab|age dBG|EFG A2 B||

